X: 3
T: Peat Fire Flame, The
M: 2/4
L: 1/8
R: polka
K: Emin
|: ^E |\
E>F GF | ED BD | BA AG/A/ | BA G/A/G/F/ |
EE/F/ GF | ED B>A | GE FD | E2 E :|
|: F |\
G>A Bg/f/ | ed- dB | BA AG/A/ | B/c/B/A/ GF |
EG/A/ Bg/f/ | e/f/e/d/ BA | GE FG/F/ | E2- E :|
